X:1
T:Blagdon, 87.87.87
T:Blagdon, 87.87.87
T:Charles Edward Stephens, 1889
T:Public Domain Courtesy of the Cyber Hymnal™
C:Charles Edward Stephens, 1889
Z:Public Domain
Z:Courtesy of the Cyber Hymnal™
%%score ( 1 2 ) ( 3 4 )
L:1/8
Q:1/4=112
M:none
K:G
V:1 treble 
V:2 treble 
V:3 bass 
V:4 bass 
V:1
 [B,B]2 [CA]2 | [DG]2 [B,G]2 | [DF]2 [CE]2 | [B,D]2 [B,D]2 | [B,G]2 [B,G]2 | [EA]2 [DB]2 | %6
 [Cc]2 [G,E]2 | [B,F]4 | [^DB]2 A2 | G2 [EG]2 | [^CF]2 [CE]2 | D2 [B,D]2 | [B,D]2 F2 | %13
 [B,E]2 [EG]2 | [DF]2 [^CE]2 x | D4 | [DG]2 D2 | [CA]2 [CD]2 | B2 ([=Fd][Ec]) | [DB]2 [DA]2 x2 | %20
 [Dd]2 [B,G]2 | [Cc]2 E2 | (FG) [DA]2 | [DG]4 |] %24
V:2
 x4 | x4 | x4 | x4 | x4 | x4 | x4 | x4 | x2 (EF) | G2 x2 | x4 | D2 x2 | x2 (D^C) | x4 | x5 | D4 | %16
 x2 D2 | x4 | (B,D) x2 | x6 | x4 | x2 E2 | D2 x2 | x4 |] %24
V:3
 [G,,D,]2 [A,,F,]2 | [B,,G,]2 [E,G,]2 | [B,,B,]2 [C,G,]2 | [G,,G,]2 G,2 | [E,G,]2 [D,G,]2 | %5
 (E,F,) [B,,G,]2 | [A,,E,]2 [C,E,]2 | [B,,^D,]4 | [B,,F,]2 B,2 | [E,B,]2 [^C,B,]2 | %10
 [F,^A,]2 [^A,,F,]2 | [B,,F,]2 [B,,F,]2 | F,2 D,2 | [G,,E,]2 [G,,B,]2 | A,3 z G, | [D,F,]4 | %16
 [G,,B,]2 [G,B,]2 | [D,F,]2 ([E,G,][F,A,]) | G,2 G,2 | G,2 z x3 | [B,,G,]2 [E,G,]2 | %21
 [A,,A,]2 [C,A,]2 | (A,B,) [D,F,C]2 | [G,,G,B,]4 |] %24
V:4
 x4 | x4 | x4 | x2 (G,F,) | x4 | C,2 x2 | x4 | x4 | x2 (^C,^D,) | x4 | x4 | x4 | (D,^C,) (B,,A,,) | %13
 x4 | A,,2 A,,2 x | x4 | x4 | x4 | G,2 (B,,C,) | D,3 F,2 C, | x4 | x4 | D,2 x2 | x4 |] %24

